source/img/about-us/smm-element-2.svg

<svg width="72" height="72" viewBox="0 0 72 72" fill="none" xmlns="http://www.w3.org/2000/svg">
<g clip-path="url(#clip0)">
<path d="M52.9389 28.4879V45.4868C52.9389 47.4771 52.149 49.3859 50.7431 50.7933C49.3372 52.2007 47.4303 52.9913 45.442 52.9913H28.4637C26.4754 52.9913 24.5685 52.2007 23.1626 50.7933C21.7566 49.3859 20.9668 47.4771 20.9668 45.4868V28.4879C20.9668 26.4976 21.7566 24.5888 23.1626 23.1814C24.5685 21.7741 26.4754 20.9834 28.4637 20.9834H45.4454C47.4337 20.9834 49.3406 21.7741 50.7465 23.1814C52.1525 24.5888 52.9423 26.4976 52.9423 28.4879H52.9389Z" fill="#F58220"/>
<path d="M41.2697 36.8545C40.6612 36.8545 39.4441 38.0728 37.01 38.0728C34.5759 38.0728 33.3588 36.8545 32.7503 36.8545C32.0809 36.8545 31.5332 37.4027 31.5332 38.0728C31.5332 38.6819 31.8983 38.9865 32.1417 39.1083C32.872 39.5347 35.1844 40.5094 35.1844 40.5094L32.5677 43.7988C32.5677 43.7988 32.0809 44.347 32.0809 44.7734C32.0809 45.4435 32.6286 45.9917 33.2979 45.9917C33.9065 45.9917 34.2107 45.5653 34.2107 45.5653L37.01 42.3368L39.7484 45.5653C39.7484 45.5653 40.0526 45.9917 40.6612 45.9917C41.3306 45.9917 41.8782 45.4435 41.8782 44.7734C41.8782 44.4079 41.3914 43.7988 41.3914 43.7988L38.8356 40.5094C38.8356 40.5094 41.148 39.5347 41.8782 39.1083C42.1217 38.9256 42.4868 38.6819 42.4868 38.0728C42.4868 37.4027 41.9391 36.8545 41.2697 36.8545Z" fill="white"/>
<path d="M37.0136 27.7158C34.6404 27.7158 32.7539 29.6042 32.7539 31.9799C32.7539 34.3555 34.6404 36.2439 37.0136 36.2439C39.3869 36.2439 41.2733 34.3555 41.2733 31.9799C41.2733 29.6042 39.3869 27.7158 37.0136 27.7158ZM37.0136 34.1119C35.8574 34.1119 34.8838 33.1372 34.8838 31.9799C34.8838 30.8225 35.8574 29.8478 37.0136 29.8478C38.1698 29.8478 39.1435 30.8225 39.1435 31.9799C39.1435 33.1372 38.1698 34.1119 37.0136 34.1119Z" fill="white"/>
<path d="M68.5119 36.98C68.5119 55.0606 54.1221 69.7099 36.381 69.7099C18.6398 69.7099 4.25 55.0606 4.25 36.98C4.25 18.8994 18.6398 4.25 36.381 4.25C54.1221 4.25 68.5119 18.8994 68.5119 36.98Z" fill="#FFC9E7" fill-opacity="0.3" stroke="#E4829E" stroke-width="0.5"/>
<g filter="url(#filter0_f)">
<path d="M21.8178 16.8855C26.4838 14.7624 26.4551 12.6208 26.078 11.6772C24.9468 10.4034 23.9894 10.7909 22.6845 11.111C20.9728 11.531 18.4805 13.8432 16.3217 15.9233C14.2242 17.9444 10.8423 22.5906 10.787 24.5237C10.7383 26.2274 11.6537 27.5248 12.0779 26.1094C12.5021 24.694 16.4964 19.3067 21.8178 16.8855Z" fill="white"/>
</g>
<path d="M23.3098 65.3796C38.2406 69.9011 65.9705 63.466 66.114 31.1767C70.2968 48.4597 54.0883 76.4979 23.3098 65.3796Z" fill="#FFCBE8"/>
</g>
<defs>
<filter id="filter0_f" x="9.78516" y="9.79443" width="17.445" height="17.9186" filterUnits="userSpaceOnUse" color-interpolation-filters="sRGB">
<feFlood flood-opacity="0" result="BackgroundImageFix"/>
<feBlend mode="normal" in="SourceGraphic" in2="BackgroundImageFix" result="shape"/>
<feGaussianBlur stdDeviation="0.5" result="effect1_foregroundBlur"/>
</filter>
<clipPath id="clip0">
<rect width="72" height="72" fill="white"/>
</clipPath>
</defs>
</svg>

<svg width="72" height="72" fill="none" xmlns="http://www.w3.org/2000/svg"><g clip-path="url(#clip0)"><path d="M52.939 28.488v16.999c0 1.99-.79 3.899-2.196 5.306a7.493 7.493 0 01-5.301 2.198H28.464a7.493 7.493 0 01-5.301-2.198 7.508 7.508 0 01-2.196-5.306v-17c0-1.99.79-3.898 2.196-5.306a7.493 7.493 0 015.3-2.198h16.982c1.989 0 3.896.791 5.301 2.198a7.508 7.508 0 012.196 5.307h-.003z" fill="#F58220"/><path d="M41.27 36.855c-.609 0-1.826 1.218-4.26 1.218-2.434 0-3.651-1.218-4.26-1.218a1.22 1.22 0 00-1.217 1.218c0 .609.365.913.609 1.035.73.427 3.042 1.401 3.042 1.401l-2.616 3.29s-.487.548-.487.974c0 .67.548 1.219 1.217 1.219.608 0 .913-.427.913-.427l2.799-3.228 2.738 3.228s.305.427.913.427a1.22 1.22 0 001.217-1.219c0-.365-.487-.974-.487-.974l-2.555-3.29s2.312-.974 3.042-1.4c.244-.183.609-.427.609-1.036 0-.67-.548-1.218-1.217-1.218zm-4.256-9.139a4.236 4.236 0 00-4.26 4.264 4.236 4.236 0 004.26 4.264 4.236 4.236 0 004.26-4.264 4.236 4.236 0 00-4.26-4.264zm0 6.396c-1.157 0-2.13-.975-2.13-2.132s.973-2.132 2.13-2.132c1.156 0 2.13.975 2.13 2.132s-.974 2.132-2.13 2.132z" fill="#fff"/><path d="M68.512 36.98c0 18.08-14.39 32.73-32.131 32.73S4.25 55.06 4.25 36.98 18.64 4.25 36.381 4.25s32.13 14.65 32.13 32.73z" fill="#FFC9E7" fill-opacity=".3" stroke="#E4829E" stroke-width=".5"/><g filter="url(#filter0_f)"><path d="M21.818 16.886c4.666-2.124 4.637-4.265 4.26-5.209-1.131-1.274-2.089-.886-3.393-.566-1.712.42-4.204 2.732-6.363 4.812-2.098 2.021-5.48 6.668-5.535 8.6-.049 1.704.867 3.002 1.29 1.586.425-1.415 4.42-6.802 9.74-9.224z" fill="#fff"/></g><path d="M23.31 65.38c14.93 4.521 42.66-1.914 42.804-34.203C70.297 48.46 54.088 76.497 23.31 65.38z" fill="#FFCBE8"/></g><defs><clipPath id="clip0"><path fill="#fff" d="M0 0h72v72H0z"/></clipPath><filter id="filter0_f" x="9.785" y="9.794" width="17.445" height="17.919" filterUnits="userSpaceOnUse" color-interpolation-filters="sRGB"><feFlood flood-opacity="0" result="BackgroundImageFix"/><feBlend in="SourceGraphic" in2="BackgroundImageFix" result="shape"/><feGaussianBlur stdDeviation=".5" result="effect1_foregroundBlur"/></filter></defs></svg>
